contributed-vectors/line_tv.svg

<svg xmlns="http://www.w3.org/2000/svg" width="192" height="192" fill="none"><g clip-path="url(#a)"><path fill="#fff" fill-rule="evenodd" d="M29 19h133c5.52 0 10 4.48 10 10v133c0 5.52-4.48 10-10 10H29c-5.52 0-10-4.48-10-10V29c0-5.52 4.48-10 10-10Z" clip-rule="evenodd"/><path fill="#98DC9A" d="m83 83.06 21.55 12.44L83 107.94V83.06ZM70.63 59C69.26 59 68 60.1 68 61.64v67.73c0 1.54 1.26 2.64 2.64 2.64.44 0 .89-.11 1.31-.36l58.65-33.86c1.75-1.01 1.75-3.55 0-4.56L71.94 59.36c-.42-.25-.87-.36-1.31-.36Z"/></g><defs><clipPath id="a"><path fill="#fff" d="M0 0h192v192H0z"/></clipPath></defs></svg>

<svg width="192" height="192" viewBox="0 0 192 192" fill="none" xmlns="http://www.w3.org/2000/svg">
<g clip-path="url(#clip0)">
<path fill-rule="evenodd" clip-rule="evenodd" d="M29 19H162C167.52 19 172 23.48 172 29V162C172 167.52 167.52 172 162 172H29C23.48 172 19 167.52 19 162V29C19 23.48 23.48 19 29 19Z" fill="white"/>
<path d="M83 83.06L104.55 95.5L83 107.94V83.06ZM70.63 59C69.26 59 68 60.1 68 61.64V129.37C68 130.91 69.26 132.01 70.64 132.01C71.08 132.01 71.53 131.9 71.95 131.65L130.6 97.79C132.35 96.78 132.35 94.24 130.6 93.23L71.94 59.36C71.52 59.11 71.07 59 70.63 59Z" fill="#98DC9A"/>
</g>
<defs>
<clipPath id="clip0">
<rect width="192" height="192" fill="white"/>
</clipPath>
</defs>
</svg>
